!!!OTL: Daer was een edel Pfalzgravin
!!!ARE: Europa, Mitteleuropa, Deutschland
!!!SCT: L0082
!!!YEM: Copyright 1995, estate of Helmut Schaffrath.
**kern
*ICvox
*Ivox
*M2/4
*k[f#c#]
*D:
{16a
=1
8.a
16dd
8dd
8dd
=2
8.dd
16ccn
8ccn
16r}
{16ccn
=3
8.dd
16a
8a
8a
=4
8.a
16g
16g
16a
16r}
{16a
=5
8.ccn
16ccn
8ccn
8dd
=6
8.ccn
16b-
8a
16r}
{16a
=7
8.dd
16a
8.a
16a
=8
8.g
16fn
8e
16r}
{16d
=9
8.d
16e
8fn
8g
=10
8.a
16g
8.a}
{16a
=11
8.a
16ccn
8ccn
8ccn
=12
8.dd
16ccn
8dd
16r}
==
!!!AGN: Lied
!! Coussemaker Nr. 62
!!!ONB: ESAC (Essen Associative Code) Database: ERK5
!!!AMT: simple duple
!!!AIN: vox
!!!EED: Helmut Schaffrath
!!!EEV: 1.0
*-
